X:137
T:Hogmany Jig
R:jig 32
C:Trad
M:6/8
Q:1/8=140
K:G
BcB BcB|A2G G2A|BcB BAG|F2E E3|FGF FGF|E2D D2D|DFA d^cd|c2B B3|
BcB BcB|A2G G2A| BcB BAG|F2E E3|FGF FGF|E2D D2D|DFA d2F| G3 G2A||
B3 A3|G3 F3|E2E EDE|F3 DFA| c3 B3| A3 G3|F2F EFE|D3 DFA|
B3 A3|G3 F3|E2E EDE|F3 DFA|c3 B3| A3 G3|DED DEF|G3 G3||

